X:83
T:Reel 83
M:4/4
K:Gmaj
L:1/8
A| (3BAG dB ecdB|G2dB cAAc| (3BAG dG ecdB|Ggga bgg:|c'|bggf gbd'c'|bggd  (3efg ac'|bggf gabc'|d'bac' bggc'|bggf gbd'c'|bggd  (3efg ac'|bbac' babg|ad'd'c' bgg|
